X: 1022
T: The Humours of Drinagh
N:"Collected by Cronin"
B:O'Neill's 1022
Z:Transcribed by Dan G. Petersen, dangp@post6.tele.dk
M:6/8
L:1/8
K:D
(A/G/)|FDF ABc|dfd ecA|FDF ABc|dcA GAG|
FDF ABc|dfd ece|fdf gec|Add d2:|
e|fdf gfg|aba gfe|fdf gfg|aba gfg|
aba gag|fgf ecA|fdf gec|Add d2:|
(c/B/)|AFD DBc|dfd cBc|AFD DBc|dcB GcB|
AFD DBc|dfd ecA|fdf gec|Add d2:|
(f/g/)|agf gag|fed ecA|agf gag|fdd d2(f/g/)|
(a/g/f)a gfe|(f/e/d)f ecA|fed gec|Add d2:|


